small/extra/apps/standard/multimedia-volume-control.svg

<?xml version="1.0" encoding="UTF-8" standalone="no"?>
<!-- Created with Inkscape (http://www.inkscape.org/) -->
<svg id="svg2" xmlns:rdf="http://www.w3.org/1999/02/22-rdf-syntax-ns#" xmlns="http://www.w3.org/2000/svg" height="100%" width="100%" version="1.1" xmlns:cc="http://creativecommons.org/ns#" viewBox="0 0 512 512" xmlns:dc="http://purl.org/dc/elements/1.1/">
 <metadata id="metadata60">
  <rdf:RDF>
   <cc:Work rdf:about="">
    <dc:format>image/svg+xml</dc:format>
    <dc:type rdf:resource="http://purl.org/dc/dcmitype/StillImage"/>
   </cc:Work>
  </rdf:RDF>
 </metadata>
 <path id="path4" d="m26 0c-14.397 0-26 11.603-26 26v460c0 14.397 11.603 26 26 26h460c14.397 0 26-11.603 26-26v-460c0-14.397-11.6-26-26-26h-460" fill="#b93d48"/>
 <text id="text6" style="word-spacing:0;letter-spacing:0" font-size="129.23px" line-height="125%" y="245.74001" x="1647" font-family="Gentium Book Basic">
  <tspan id="tspan8" y="245.74001" x="1647"/>
 </text>
 <text id="text10" style="text-anchor:middle" transform="scale(4.0128 .2492)" font-size="46.954px" y="636.95001" x="607.52002" font-family="Arial"/>
 <text id="text12" style="word-spacing:0;letter-spacing:0" font-size="129.23px" line-height="125%" y="165.74001" x="2228.27" font-family="Gentium Book Basic">
  <tspan id="tspan14" y="165.74001" x="2228.27"/>
 </text>
 <text id="text16" style="text-anchor:middle" transform="scale(4.0128 .2492)" font-size="46.954px" y="315.92001" x="752.35999" font-family="Arial"/>
 <text id="text18" style="word-spacing:0;letter-spacing:0" font-size="129.23px" line-height="125%" y="-15.521" x="1156.6899" font-family="Gentium Book Basic">
  <tspan id="tspan20" y="-15.521" x="1156.6899"/>
 </text>
 <text id="text22" style="text-anchor:middle" transform="scale(4.0128 .2492)" font-size="46.954px" y="-411.42999" x="485.32999" font-family="Arial"/>
 <text id="text24" style="word-spacing:0;letter-spacing:0" font-size="129.23px" line-height="125%" y="-231.99001" x="2254.74" font-family="Gentium Book Basic">
  <tspan id="tspan26" y="-231.99001" x="2254.74"/>
 </text>
 <text id="text28" style="text-anchor:middle" transform="scale(4.0128 .2492)" font-size="46.954px" y="-1280.1" x="758.96002" font-family="Arial"/>
 <text id="text30" style="word-spacing:0;letter-spacing:0" font-size="129.23px" line-height="125%" y="-312" x="2836.01" font-family="Gentium Book Basic">
  <tspan id="tspan32" y="-312" x="2836.01"/>
 </text>
 <text id="text34" style="text-anchor:middle" transform="scale(4.0128 .2492)" font-size="46.954px" y="-1601.14" x="903.81" font-family="Arial"/>
 <text id="text36" style="word-spacing:0;letter-spacing:0" font-size="129.23px" line-height="125%" y="-784.40002" x="2446.8899" font-family="Gentium Book Basic">
  <tspan id="tspan38" y="-784.40002" x="2446.8899"/>
 </text>
 <text id="text40" style="text-anchor:middle" transform="scale(4.0128 .2492)" font-size="46.954px" y="-3496.79" x="806.84003" font-family="Arial"/>
 <text id="text42" style="word-spacing:0;letter-spacing:0" font-size="129.23px" line-height="125%" y="-864.40002" x="3028.1499" font-family="Gentium Book Basic">
  <tspan id="tspan44" y="-864.40002" x="3028.1499"/>
 </text>
 <text id="text46" style="text-anchor:middle" transform="scale(4.0128 .2492)" font-size="46.954px" y="-3817.8201" x="951.69" font-family="Arial"/>
 <text id="text48" style="word-spacing:0;letter-spacing:0" font-size="208.33px" line-height="125%" y="550.32001" x="1195.35" font-family="Gentium Book Basic">
  <tspan id="tspan50" y="550.32001" x="1195.35"/>
 </text>
 <path id="path52" opacity=".25" d="m94.31 41v89.59l17.906 17.906h-35.879c-9.881 0-17.969 8.05-17.969 17.906v35.844c0 4.915 2.01 9.382 5.25 12.625l30.688 30.688v225.44l41 41h350.69c14.397 0 26-11.603 26-26v-350.69l-94.31-94.31h-35.938v107.78l-107.78-107.79h-35.906v107.81l-107.8-107.81h-35.942"/>
 <path id="path54" d="m94.31 41v89.59h35.938v-89.59h-35.94m143.75 0v232.91h35.906v-232.91h-35.91m143.69 0v125.41h35.938v-125.41h-35.94m-305.41 107.5c-9.881 0-17.969 8.05-17.969 17.906v35.844c0 9.856 8.09 17.906 17.969 17.906h71.875c9.881 0 17.969-8.05 17.969-17.906v-35.844c0-9.856-8.09-17.906-17.969-17.906h-71.88m287.44 35.844c-9.879 0-17.969 8.05-17.969 17.906v35.844c0 9.856 8.09 17.906 17.969 17.906h71.875c9.881 0 17.969-8.05 17.969-17.906v-35.84c0-9.856-8.09-17.906-17.969-17.906h-71.88m-269.47 53.75v232.91h35.938v-232.91h-35.94m287.44 35.813v197.09h35.938v-197.08h-35.94m-161.66 17.938c-9.881 0-17.969 8.05-17.969 17.906v35.844c0 9.856 8.09 17.906 17.969 17.906h71.844c9.881 0 17.969-8.05 17.969-17.906v-35.844c0-9.856-8.09-17.906-17.969-17.906h-71.84m17.969 89.56v89.59h35.906v-89.59h-35.906" fill="#fff"/>
</svg>

<?xml version="1.0" encoding="UTF-8" standalone="no"?>
<!-- Created with Inkscape (http://www.inkscape.org/) -->

<svg
   xmlns:dc="http://purl.org/dc/elements/1.1/"
   xmlns:cc="http://creativecommons.org/ns#"
   xmlns:rdf="http://www.w3.org/1999/02/22-rdf-syntax-ns#"
   xmlns:svg="http://www.w3.org/2000/svg"
   xmlns="http://www.w3.org/2000/svg"
   xmlns:inkscape="http://www.inkscape.org/namespaces/inkscape"
   version="1.1"
   width="100%"
   height="100%"
   viewBox="0 0 512 512"
   id="svg2">
  <metadata
     id="metadata60">
    <rdf:RDF>
      <cc:Work
         rdf:about="">
        <dc:format>image/svg+xml</dc:format>
        <dc:type
           rdf:resource="http://purl.org/dc/dcmitype/StillImage" />
      </cc:Work>
    </rdf:RDF>
  </metadata>
  <defs
     id="defs58" />
  <path
     d="M 26,0 C 11.603,0 0,11.603 0,26 v 460 c 0,14.397 11.603,26 26,26 h 460 c 14.397,0 26,-11.603 26,-26 V 26 C 512,11.603 500.397,0 486,0 H 26"
     inkscape:connector-curvature="0"
     id="path4"
     style="fill:#b93d48" />
  <text
     x="1647"
     y="245.74001"
     id="text6"
     style="font-size:129.22999573px;line-height:125%;letter-spacing:0;word-spacing:0;font-family:Gentium Book Basic">
    <tspan
       x="1647"
       y="245.74001"
       id="tspan8" />
  </text>
  <text
     x="607.52002"
     y="636.95001"
     transform="scale(4.0128,0.2492)"
     id="text10"
     style="font-size:46.95399857px;text-anchor:middle;font-family:Arial" />
  <text
     x="2228.27"
     y="165.74001"
     id="text12"
     style="font-size:129.22999573px;line-height:125%;letter-spacing:0;word-spacing:0;font-family:Gentium Book Basic">
    <tspan
       x="2228.27"
       y="165.74001"
       id="tspan14" />
  </text>
  <text
     x="752.35999"
     y="315.92001"
     transform="scale(4.0128,0.2492)"
     id="text16"
     style="font-size:46.95399857px;text-anchor:middle;font-family:Arial" />
  <text
     x="1156.6899"
     y="-15.521"
     id="text18"
     style="font-size:129.22999573px;line-height:125%;letter-spacing:0;word-spacing:0;font-family:Gentium Book Basic">
    <tspan
       x="1156.6899"
       y="-15.521"
       id="tspan20" />
  </text>
  <text
     x="485.32999"
     y="-411.42999"
     transform="scale(4.0128,0.2492)"
     id="text22"
     style="font-size:46.95399857px;text-anchor:middle;font-family:Arial" />
  <text
     x="2254.74"
     y="-231.99001"
     id="text24"
     style="font-size:129.22999573px;line-height:125%;letter-spacing:0;word-spacing:0;font-family:Gentium Book Basic">
    <tspan
       x="2254.74"
       y="-231.99001"
       id="tspan26" />
  </text>
  <text
     x="758.96002"
     y="-1280.1"
     transform="scale(4.0128,0.2492)"
     id="text28"
     style="font-size:46.95399857px;text-anchor:middle;font-family:Arial" />
  <text
     x="2836.01"
     y="-312"
     id="text30"
     style="font-size:129.22999573px;line-height:125%;letter-spacing:0;word-spacing:0;font-family:Gentium Book Basic">
    <tspan
       x="2836.01"
       y="-312"
       id="tspan32" />
  </text>
  <text
     x="903.81"
     y="-1601.14"
     transform="scale(4.0128,0.2492)"
     id="text34"
     style="font-size:46.95399857px;text-anchor:middle;font-family:Arial" />
  <text
     x="2446.8899"
     y="-784.40002"
     id="text36"
     style="font-size:129.22999573px;line-height:125%;letter-spacing:0;word-spacing:0;font-family:Gentium Book Basic">
    <tspan
       x="2446.8899"
       y="-784.40002"
       id="tspan38" />
  </text>
  <text
     x="806.84003"
     y="-3496.79"
     transform="scale(4.0128,0.2492)"
     id="text40"
     style="font-size:46.95399857px;text-anchor:middle;font-family:Arial" />
  <text
     x="3028.1499"
     y="-864.40002"
     id="text42"
     style="font-size:129.22999573px;line-height:125%;letter-spacing:0;word-spacing:0;font-family:Gentium Book Basic">
    <tspan
       x="3028.1499"
       y="-864.40002"
       id="tspan44" />
  </text>
  <text
     x="951.69"
     y="-3817.8201"
     transform="scale(4.0128,0.2492)"
     id="text46"
     style="font-size:46.95399857px;text-anchor:middle;font-family:Arial" />
  <text
     x="1195.35"
     y="550.32001"
     id="text48"
     style="font-size:208.33000183px;line-height:125%;letter-spacing:0;word-spacing:0;font-family:Gentium Book Basic">
    <tspan
       x="1195.35"
       y="550.32001"
       id="tspan50" />
  </text>
  <path
     d="m 94.31,41 v 89.59 l 17.906,17.906 H 76.341 c -9.881,0 -17.969,8.05 -17.969,17.906 v 35.844 c 0,4.915 2.01,9.382 5.25,12.625 l 30.688,30.688 v 225.44 l 41,41 H 486 c 14.397,0 26,-11.603 26,-26 v -350.69 l -94.31,-94.31 h -35.938 v 107.78 L 273.972,40.999 h -35.906 v 107.81 L 130.256,40.999 H 94.318"
     inkscape:connector-curvature="0"
     id="path52"
     style="opacity:0.25" />
  <path
     d="m 94.31,41 v 89.59 h 35.938 V 41 H 94.31 m 143.75,0 v 232.91 h 35.906 V 41 H 238.06 m 143.69,0 v 125.41 h 35.938 V 41 H 381.75 M 76.34,148.5 c -9.881,0 -17.969,8.05 -17.969,17.906 v 35.844 c 0,9.856 8.09,17.906 17.969,17.906 h 71.875 c 9.881,0 17.969,-8.05 17.969,-17.906 v -35.844 c 0,-9.856 -8.09,-17.906 -17.969,-17.906 H 76.34 m 287.44,35.844 c -9.879,0 -17.969,8.05 -17.969,17.906 v 35.844 c 0,9.856 8.09,17.906 17.969,17.906 h 71.875 c 9.881,0 17.969,-8.05 17.969,-17.906 V 202.25 c 0,-9.856 -8.09,-17.906 -17.969,-17.906 H 363.78 m -269.47,53.75 v 232.91 h 35.938 V 238.094 H 94.31 m 287.44,35.813 v 197.09 h 35.938 V 273.907 H 381.75 m -161.66,17.938 c -9.881,0 -17.969,8.05 -17.969,17.906 v 35.844 c 0,9.856 8.09,17.906 17.969,17.906 h 71.844 c 9.881,0 17.969,-8.05 17.969,-17.906 v -35.844 c 0,-9.856 -8.09,-17.906 -17.969,-17.906 H 220.09 m 17.969,89.56 v 89.59 h 35.906 v -89.59 h -35.906"
     inkscape:connector-curvature="0"
     id="path54"
     style="fill:#ffffff" />
</svg>
